X:1
T: Mrs. Blair (of Blair)
C:
R:Strathspey
Q: 128
K:A
M:4/4
L:1/16
|:E2|A4 E3A FA3 A3c|d3B e3d c3e a4|c2BA E3A FA3 df3|e2dc d2cB cA3 A2E2|
A4 E3A FA3 A3c|d3B e3d c3e a4|c2BA E3A FA3 df3|e2dc d2cB cA3 A2AB|
c3A e3c a3e d3c|BG3 d3B e3d c3B|AF3 c3A d3c B3A|B3F B3A G4 FE3|
cde2 A3c f3e d3c|B2cd G3B e3d c3B|ABc2 F3a g3f e3d|ce3 E3G A4 A2:|

